data/icons/scalable/actions/cine-playback-pause-symbolic.svg

<svg xmlns="http://www.w3.org/2000/svg" xmlns:cc="http://creativecommons.org/ns#" xmlns:dc="http://purl.org/dc/elements/1.1/" xmlns:gpa="https://www.gtk.org/grappa" xmlns:rdf="http://www.w3.org/1999/02/22-rdf-syntax-ns#" width="16" height="16" gpa:version="1" gpa:state="0" gpa:state-names="outline filled empty">
<path visibility="hidden" d="M 6 3.5 L 6 12.5 C 6 13.3284273, 5.32842731 14, 4.5 14 C 3.67157292 14, 3 13.3284273, 3 12.5 L 3 3.5 C 3 2.67157292, 3.67157292 2, 4.5 2 C 5.32842731 2, 6 2.67157292, 6 3.5 Z M 13 3.5 L 13 12.5 C 13 13.3284273, 12.3284273 14, 11.5 14 C 10.6715727 14, 10 13.3284273, 10 12.5 L 10 3.5 C 10 2.67157292, 10.6715727 2, 11.5 2 C 12.3284273 2, 13 2.67157292, 13 3.5 Z" id="path0" gpa:states="filled" gpa:transition-type="fade" gpa:transition-duration="200ms" stroke="none" fill-rule="nonzero" fill="rgb(0,0,0)" class="foreground-fill" gpa:fill="foreground">
    </path>
  <path d="M 6 3.5 L 6 12.5 C 6 13.3284273, 5.32842731 14, 4.5 14 C 3.67157292 14, 3 13.3284273, 3 12.5 L 3 3.5 C 3 2.67157292, 3.67157292 2, 4.5 2 C 5.32842731 2, 6 2.67157292, 6 3.5 Z M 13 3.5 L 13 12.5 C 13 13.3284273, 12.3284273 14, 11.5 14 C 10.6715727 14, 10 13.3284273, 10 12.5 L 10 3.5 C 10 2.67157292, 10.6715727 2, 11.5 2 C 12.3284273 2, 13 2.67157292, 13 3.5 Z" id="path1" gpa:states="outline" gpa:transition-type="fade" gpa:transition-duration="200ms" stroke-width="2" stroke-linecap="round" stroke-linejoin="round" stroke="rgb(0,0,0)" fill="url(&quot;#gpa:foreground&quot;) rgb(0,0,0)" fill-opacity="1"  class="foreground-stroke foreground-fill" gpa:stroke="foreground" gpa:stroke-minwidth="25%" gpa:stroke-maxwidth="150%" >
    </path>
  <metadata>
    <rdf:RDF>
      <cc:Work>
        <cc:license rdf:resource="https://creativecommons.org/publicdomain/zero/1.0/"></cc:license>
        <dc:subject>
          <rdf:Bag>
            <rdf:li>media-playback-pause</rdf:li>
          </rdf:Bag>
        </dc:subject>
        <dc:creator>
          <cc:Agent>
            <dc:title>Jakub Steiner</dc:title>
          </cc:Agent>
        </dc:creator>
      </cc:Work>
    </rdf:RDF>
  </metadata>
</svg>

<?xml version="1.0" encoding="UTF-8"?>
<svg id="svg1" width="16" height="16" gpa:keywords="media-playback-pause" gpa:state="1" gpa:version="1" version="1.1" xmlns="http://www.w3.org/2000/svg" xmlns:gpa="https://www.gtk.org/grappa">
 <style id="style1" type="text/css">.not-initial-state {
      display: none;
    }</style>
 <path id="path0" class="foreground-fill" d="m6 3.5v9c0 0.82843-0.67157 1.5-1.5 1.5-0.82843 0-1.5-0.67157-1.5-1.5v-9c0-0.82843 0.67157-1.5 1.5-1.5 0.82843 0 1.5 0.67157 1.5 1.5zm7 0v9c0 0.82843-0.67157 1.5-1.5 1.5s-1.5-0.67157-1.5-1.5v-9c0-0.82843 0.67157-1.5 1.5-1.5s1.5 0.67157 1.5 1.5z" stroke="#000" stroke-width="2" gpa:fill="foreground" gpa:states="1" gpa:transition-duration="200ms" gpa:transition-type="fade"/>
 <path id="path1" class="foreground-stroke transparent-fill not-initial-state" d="m6 3.5v9c0 0.82843-0.67157 1.5-1.5 1.5-0.82843 0-1.5-0.67157-1.5-1.5v-9c0-0.82843 0.67157-1.5 1.5-1.5 0.82843 0 1.5 0.67157 1.5 1.5zm7 0v9c0 0.82843-0.67157 1.5-1.5 1.5s-1.5-0.67157-1.5-1.5v-9c0-0.82843 0.67157-1.5 1.5-1.5s1.5 0.67157 1.5 1.5z" fill="none" stroke="#000" stroke-linecap="round" stroke-linejoin="round" stroke-width="2" gpa:states="0" gpa:stroke="foreground" gpa:transition-duration="200ms" gpa:transition-type="fade"/>
</svg>
